lib/img/icons/ui/basemap.svg

<?xml version="1.0" encoding="utf-8"?>
<!-- Generated by IcoMoon.io -->
<!DOCTYPE svg PUBLIC "-//W3C//DTD SVG 1.1//EN" "http://www.w3.org/Graphics/SVG/1.1/DTD/svg11.dtd">
<svg version="1.1" xmlns="http://www.w3.org/2000/svg" xmlns:xlink="http://www.w3.org/1999/xlink" width="32" height="32" viewBox="0 0 32 32">
<path fill="rgb(0, 0, 0)" d="M0 0v14h13.99v-14h-13.99zM11.99 11.92v0.080h-4.83c0.471-0.879 1.043-2.027 1.676-2.792 0.789 1.11 1.676 2.053 3.154 2.712zM5.951 2.336c0.119 0.233 0.234 0.475 0.311 0.754 0.361 1.308 0.857 3.078 1.738 4.752-0.979 1.101-1.85 2.559-2.496 4.158h-3.514v-5.775c2.49-0.862 3.445-2.79 3.961-3.889zM31.99 0h-13.99v14h13.99v-14zM26.26 12c0.010-0.25 0.037-0.561 0.084-0.805 0.029-0.761 0.309-1.917 0.752-2.108 0.242-0.106 0.461-0.163 0.644-0.214 0.412-0.111 0.877-0.239 1.137-0.714 0.266-0.486 0.143-1.063-0.053-1.684 0.088-0.142 0.445-0.284 1.166-0.345v5.869h-3.73zM29.99 4.603c-0.848 0.051-1.834 0.245-2.373 0.964-0.301 0.402-0.377 0.909-0.215 1.429 0.055 0.173 0.084 0.294 0.1 0.376-0.053 0.016-0.111 0.031-0.16 0.045-0.242 0.066-0.527 0.146-0.846 0.284-1.486 0.643-1.646 2.978-1.648 3.311-0.033 0.161-0.105 0.432-0.102 0.989h-2.045c0.096-0.496 0.098-0.65 0.080-0.83 0.059-0.568 0.252-3.403-1.559-4.344 0.158-0.056 0.303-0.098 0.383-0.109 2.705-0.127 3.348-2.492 3.57-3.697 0.102-0.549 0.672-0.849 1.262-1.020h3.553v2.603zM31.99 18h-13.99v14h13.99v-14zM21.906 26.633l1.693 3.367h-3.609v-10h0.338l4.371 2.661-2.691 3.142c-0.199 0.23-0.238 0.559-0.102 0.83zM23.234 20h6.756v4.113l-6.756-4.113zM0 18v14h13.99v-14h-13.99zM11.715 21.108c-0.004 0.013-0.373 1.148-1.689 1.367-1.225 0.204-1.838 1.017-2.068 1.849-1.502-0.482-2.896-0.236-3.859 0.721-1.141 1.139-1.377 3.014-0.57 4.562 0.045 0.086 0.096 0.253 0.133 0.393h-1.67v-10h10.010v0.127c-0.365 0.515-0.27 0.933-0.285 0.981z"></path>
</svg>

<svg xmlns="http://www.w3.org/2000/svg" width="32" height="32" viewBox="0 0 32 32" class="svg-icon">
    <path d="M0 0v14h13.99V0H0zm11.99 11.92V12H7.16c.471-.879 1.043-2.027 1.676-2.792.789 1.11 1.676 2.053 3.154 2.712zM5.951 2.336c.119.233.234.475.311.754.361 1.308.857 3.078 1.738 4.752C7.021 8.943 6.15 10.401 5.504 12H1.99V6.225c2.49-.862 3.445-2.79 3.961-3.889zM31.99 0H18v14h13.99V0zm-5.73 12c.01-.25.037-.561.084-.805.029-.761.309-1.917.752-2.108.242-.106.461-.163.644-.214.412-.111.877-.239 1.137-.714.266-.486.143-1.063-.053-1.684.088-.142.445-.284 1.166-.345v5.869h-3.73zm3.73-7.397c-.848.051-1.834.245-2.373.964-.301.402-.377.909-.215 1.429.055.173.084.294.1.376-.053.016-.111.031-.16.045a6.036 6.036 0 0 0-.846.284c-1.486.643-1.646 2.978-1.648 3.311-.033.161-.105.432-.102.989h-2.045c.096-.496.098-.65.08-.83.059-.568.252-3.403-1.559-4.344a2.35 2.35 0 0 1 .383-.109c2.705-.127 3.348-2.492 3.57-3.697.102-.549.672-.849 1.262-1.02h3.553v2.603zm2 13.397H18v14h13.99V18zm-10.084 8.633L23.599 30H19.99V20h.338l4.371 2.661-2.691 3.142a.754.754 0 0 0-.102.83zM23.234 20h6.756v4.113L23.234 20zM0 18v14h13.99V18H0zm11.715 3.108a2.161 2.161 0 0 1-1.689 1.367c-1.225.204-1.838 1.017-2.068 1.849-1.502-.482-2.896-.236-3.859.721-1.141 1.139-1.377 3.014-.57 4.562.045.086.096.253.133.393h-1.67V20h10.01v.127c-.365.515-.27.933-.285.981z"/>
</svg>
